X: 17379
T: High Road To Gairloch
R: polka
M: 2/4
K: Amixolydian
e>f eA|cA e2|d>e dG|B=G d2|
e>f eA|cA e2|A>B cA|B2 A2:|
cA A>B|cA c2|d>c B>c|dB d2|
cA A>B|cA ce|A>B cA|B2 A2:|

